packages/icons/brands/NFTScan.svg

<svg width="24" height="24" viewBox="0 0 24 24" xmlns="http://www.w3.org/2000/svg">
<g>
        <path
            d="M12.5007 7.1615C13.2104 7.1615 13.7911 7.74217 13.7911 8.45188H18.9526C18.9526 4.90334 16.0492 2 12.5007 2C8.95217 2 6.04883 4.90334 6.04883 8.45188C6.04883 12.0004 8.95217 14.9038 12.5007 14.9038C13.2104 14.9038 13.7911 15.4844 13.7911 16.1941C13.7911 16.4522 13.7266 16.6458 13.5975 16.8393H18.8881C18.8881 16.6458 18.9526 16.3877 18.9526 16.1941C18.9526 12.6456 16.0492 9.74225 12.5007 9.74225C11.791 9.74225 11.2103 9.16158 11.2103 8.45188C11.2103 7.74217 11.791 7.1615 12.5007 7.1615Z"
            fill="#1450F0"
        />
        <path
            d="M11.2103 16.1943H6.04883C6.04883 16.3879 6.04883 16.646 6.11335 16.8395H11.4039C11.2748 16.646 11.2103 16.4524 11.2103 16.1943Z"
            fill="#1450F0"
        />
        <path
            d="M6.37032 18.1296H18.6934C18.7579 17.936 18.8224 17.6779 18.887 17.4844H6.17676C6.24128 17.6779 6.3058 17.936 6.37032 18.1296Z"
            fill="#1450F0"
        />
        <path
            d="M6.889 19.4196H18.0507C18.1798 19.226 18.3088 18.968 18.3733 18.7744H6.56641C6.69544 18.968 6.82448 19.226 6.889 19.4196Z"
            fill="#1450F0"
        />
        <path
            d="M7.91758 20.7096H17.1438C17.3373 20.5161 17.5309 20.3225 17.7244 20.0645H7.33691C7.53047 20.3225 7.72403 20.5161 7.91758 20.7096Z"
            fill="#1450F0"
        />
        <path
            d="M9.72572 22.0002H15.3389C15.726 21.8066 16.0486 21.6131 16.3712 21.355H8.62891C8.9515 21.6131 9.33861 21.8066 9.72572 22.0002Z"
            fill="#1450F0"
        />
    </g>
</svg>

<svg xmlns="http://www.w3.org/2000/svg" viewBox="0 0 24 24">
    <path fill="#1450F0" d="M12.5 7.162c.71 0 1.291.58 1.291 1.29h5.162C18.953 4.903 16.049 2 12.5 2 8.952 2 6.049 4.903 6.049 8.452c0 3.548 2.903 6.452 6.452 6.452.71 0 1.29.58 1.29 1.29 0 .258-.064.452-.194.645h5.291c0-.193.065-.451.065-.645 0-3.548-2.904-6.452-6.452-6.452-.71 0-1.29-.58-1.29-1.29 0-.71.58-1.29 1.29-1.29Zm-1.29 9.032H6.05c0 .194 0 .452.064.646h5.29a1.09 1.09 0 0 1-.193-.646ZM6.37 18.13h12.323c.065-.194.13-.452.194-.646H6.177c.064.194.129.452.193.646Zm.519 1.29h11.162a3.01 3.01 0 0 0 .322-.646H6.566a3 3 0 0 1 .323.646Zm1.029 1.29h9.226c.193-.194.387-.387.58-.646H7.337c.193.259.387.452.58.646ZM9.726 22h5.613c.387-.193.71-.387 1.032-.645H8.63c.322.258.71.452 1.097.645Z"/>
</svg>
